X:1
T:Sento in Seno
T:Sento in seno
T:Antonio Vivaldi 
T:Giustino Act 2, Scene 1
T:Antonio Maria Lucchini
C:Antonio Vivaldi
%%score 1 { 2 | 3 }
L:1/8
Q:1/4=115
M:3/4
K:Gb
V:1 treble nm="Voice"
V:2 treble nm="Harpsichord"
V:3 bass 
V:1
 z6 | z6 | z6 | z6 | z6 | z6 | z6 | z6 | z6 | z6 | z6 | z6 | z6 | z6 | z6 | z6 | z6 | z2 EF GA | %18
w: |||||||||||||||||Sen- * to in|
 B3 c B2 | B3 c B2 | BA GF E2 | B3 c B2 | BA GF E2 | z6 | z2 B2 e2 | =cd e2 G2 | F2 d2 c2 | %27
w: se- no ch'in|piog- gia di|la- * * gri- me,in|piog- gia di|la- * * gri- me,||si di-|le- * * *||
 Bc d2 F2 | E2 c2 B2 | =AB =c2 E2 | =D2 B2 A2 | GF E2 z2 | z2 B2 B2 | =A2 F2 B2 | B3 =c =A2 | %35
w: ||||* * gua,|si di-|le- gua la-|man- te mio|
 B2 z2 z2 | z6 | z2 d2 B2 | =G2 A2 B2 | E2 B2 d2 | c3 B A2 | z2 c2 A2 | F2 G2 A2 | D2 c2 A2 | %44
w: cor.||Sen- to'in|se- no- ch'in|piog- gia di|la- gri- me,|sen- toin|se- no ch'in|piog- gia di|
 B3 A G2 | z2 B2 B2 | B2- B>c B>c | B2- B>c B>c | B2 AG FE | E3 F =D2 | E4 z2 | z2 B2 B2 | %52
w: la- gri- me|si di-|le- * * * *||* gua _ l'a- *|man- te mio|cor,|si di-|
 e2 dc BA | G3 A F2 | E2 z4 | z6 | z6 | z6 | z6 | z6 | z6 | z6 | z6 | z6 | z6 | z6 | z6 | %67
w: le- gua _ l'a- *|man- te mio|cor.|||||||||||||
 z2!fine! | G2 B2 | A2 d2 A2 | B3 c B2 | AG A2 d2 | B3 c B2 | AG A2 z2 | z2 d2 D2 | E2 c2 E2 | %76
w: |Ma mio|co- re tra-|la- scia di|pian- ge- re, tra-|la- scia di|pian- ge- re,|ch'il tuo|pian- to non|
 F2 d2 F2 | GA Bc d2 | B3 c A2 | !fermata!G6!D.C.! |] %80
w: sce- ma'il do-|lor, _ _ _ non|sce- ma'il do-|lor.|
V:2
 B.[Be] .[eg].[gb] .[Be].[eg] | .[=df].[FB] .[Bd].[df] .[fb].[df] | %2
 .[eg].[Be] .[eg].[gb] .[eg].[Be] | .[=df].B .B.d .B.F | .b.b .b.b .a.a | %5
 .[e=g].[eg] .[eg].[eg] .[dg].[dg] | .a.a .a.a .g.g | .[df].[df] .[df].[df] .[=cf].[cf] | %8
 .g.g .g.g .f.f | .[ce].[ce] .[ce].[ce] .[Be].[Be] | .[=Af].[Af] .[Af].[Af] .[Ae].[Ae] | %11
 .[B=d].[df] .[df].[e=g] .[eg].[fa] | .[fa].[gb] .[gb].[ac'] .[ac'].[=df] | .[=df]2 z2 z2 | %14
 .e'.e' .e'.e' .e'.e' | .d'.c' .b.a .g.f | .[eg]2 .[ef]2 .[=df]2 | .e2 z2 z2 | %18
 B.[Be] .[eg].[gb] .[Be].[eg] | .[=df].[FB] .[Bd].[df] .[fb].[df] | %20
 .[eg].[Be] .[eg].[gb] .[eg].[Be] | .[=df].[FB] .[Bd].[df] .[fb].[df] | %22
 .[eg].[Be] .[eg].[gb] .[eg].[Be] | .[=df].b .b.b .a.a | .[e=g].[eg] .[eg].[eg] .[dg].[dg] | %25
 .[=ca].[ca] .[ca].[ca] .[cg].[cg] | .[df].[df] .[df].[df] .[!courtesy!_cf].[cf] | %27
 .[Bg].[Bg] .[Bg].[Bg] .[Bf].[Bf] | .[ce].[ce] .[ce].[ce] .[Be].[Be] | %29
 .[=Af].[Af] .[Af].[Af] .[Ae].[Ae] | .[B=d].[Bd] .[Bd].[Bd] .[!courtesy!_Ad].[Ad] | %31
 .[Ge].[Be] .[eg].[gb] .[Be].[eg] | .[df].[Bf] .[Bd].[df] .[fb].[Bd] | %33
 .[=A=c].[cf] .[f=a].[cf] .[Bd].[fb] | .[Bd].[fb] .[Bd].[fb] .[=A=c].[f=a] | %35
 .[fb].[Bd] .[Bd].[df] .[fb].[df] | .[=cf].[=Ac] .[FA].[Ac] .[ce].[cf] | %37
 .[Bd].[FB] .[Bd].[df] .[fb].[df] | .[e=g].[=GB] .[Be].[eg] .[gb].[eg] | %39
 .[e=g].[=GB] .[Be].[eg] .[gb].[eg] | .[ca].[Ae] .[Ac].[ce] .[ea].[ce] | %41
 .[Ac].[Ae] .[Ac].[ce] .[ea].[ce] | .[df].[Af] .[Ad].[df] .[fa].[df] | %43
 .[Ad].[Af] .[Ad].[df] .[fa].[df] | .[Bg].[DG] .[GB].[Bd] .[dg].[Bd] | %45
 .[Be].[gb] .[gb].[gb] .[gb].[gb] | .[eg].[gb] .[eg].[gb] .[=df].[fb] | %47
 .[eg].[gb] .[eg].[gb] .[=df].[fb] | .[eg].[Be] .[eg].[gb] .[eg].[Be] | %49
 .[Ge].[gb] .[Ge].[gb] .[F=d].[db] | .[eg].[Be] .[eg].[gb] .[eg].[Be] | %51
 .[=df].[FB] .[Bd].[df] .[fb].[df] | .[Beg]2 z2 z2 | .[eg]3 .[fa] .[=df]2 | %54
 .[Be].[gb] .[gb].[gb] .[fa].[fa] | .[e=g].[eg] .[eg].[eg] .[dg].[dg] | %56
 .[=ca].[ea] .[ea].[ea] .[cg].[cg] | .[Af].[df] .[df].[df] .[cf].[cf] | %58
 .[Bg].[dg] .[dg].[dg] .[Bf].[Bf] | .[Ge].[ce] .[ce].[ce] .[Be].[Be] | %60
 .[=Af].[Af] .[Af].[Af] .[Ae].[Ae] | .[B=d].[df] .[df].[e=g] .[eg].[fa] | %62
 .[fa].[=gb] .[gb].[ac'] .[ac'].[=df] | .[=df]2 z4 | .[ee'].[ee'] .[ee'].[ee'] .[ee'].[ee'] | %65
 .[dd'].[cc'] .[Bb].[Aa] .[Gg].[Ff] | .[eg]2 .[ef]2 .[B=d]2 | .[Be]2 | z2 z .[dg] | %69
 .[df].[fa] .[df].[fa] .[df].[fa] | .[dg].[gb] .[dg].[gb] .[dg].[gb] | %71
 .[fa].[fa] .[df].[fa] .[df].[fa] | .[dg].[gb] .[dg].[gb] .[dg].[gb] | %73
 .[fa].[fa] .[df].[fa] .[df].[fa] | .[dg]2 z2 z2 | z6 | z6 | .[Bg].[Bg] .[Bg].[Bg] .[Bg].[Bg] | %78
 .[Bg].[Bg] .[Bg].[Bg] .[Af].[Af] | !fermata![Bg]6 |] %80
V:3
 .E,2 .E,2 .E,2 | .B,2 .B,,2 .B,,2 | .E,2 .E,2 .E,2 | .B,.=D, .F,.B, .F,.D, | .B,,2 z2 z2 | %5
 .E,2 .E,2 .E,2 | .A,,2 z2 z2 | .D,2 .D,2 .D,2 | .G,,2 z2 z2 | .C,2 .C,2 .C,2 | .F,,2 z2 z2 | %11
 .B,,2 .B,,2 .B,,2 | .B,,2 .B,,2 .B,,2 | .B,,.B,, .=D,.D, .F,.F, | .G,2 z2 z2 | z6 | %16
 .E,2 .B,2 .B,,2 | .E,2 z2 z2 | .E,2 .E,2 .E,2 | .B,2 .B,,2 .B,,2 | .E,2 .E,2 .G,2 | %21
 .B,2 .B,,2 .B,,2 | .E,2 .E,2 .E,2 | .B,2 z2 z2 | .E,2 .E,2 .E,2 | .A,,2 .A,,2 .A,,2 | %26
 .D,2 .D,2 .D,2 | .G,,2 .G,,2 .G,,2 | .C,2 .C,2 .C,2 | .F,,2 .F,,2 .F,,2 | .B,,2 .B,,2 .B,,2 | %31
 .E,,2 .E,,2 .E,,2 | .B,,2 .B,,2 .B,,2 | .F,2 .F,2 .B,,2 | .F,2 .F,2 .F,,2 | .B,,2 .B,,2 .B,,2 | %36
 .F,2 .F,2 .F,2 | .B,,2 .B,,2 .B,,2 | .E,2 .E,2 .E,2 | .E,2 .E,2 .E,2 | .A,,2 .A,,2 .A,,2 | %41
 .A,,2 .A,,2 .A,,2 | .D,2 .D,2 .D,2 | .D,2 .D,2 .D,2 | .G,,2 .G,,2 .G,,2 | .E,2 .E,2 .E,2 | %46
 .E,2 .E,2 .B,2 | .E,2 .E,2 .B,2 | .E,2 .E,2 .E,2 | .B,,2 .B,,2 .B,,2 | .E,2 .E,2 .E,2 | %51
 .B,,2 .B,,2 .B,,2 | .G,,2 z2 z2 | .E,2 .A,,2 .B,,2 | .E,2 z2 z2 | .E,2 .E,2 .E,2 | %56
 .A,,2 .A,,2 .A,,2 | .D,2 .D,2 .D,2 | .G,,2 .G,,2 .G,,2 | .C,2 .C,2 .C,2 | .F,,2 .F,,2 .F,,2 | %61
 .B,,2 .B,,2 .B,,2 | .B,,2 .B,,2 .B,,2 | .B,,.B,, .=D,.D, .F,.F, | .G,.E .E.E .E.E | %65
 .D.C .B,.A, .G,.F, | .E,2 .B,2 .B,,2 | .E,2 | .G,,2 .G,,2 | .D,2 .D,2 .D,2 | .G,,2 .G,,2 .G,,2 | %71
 .D,2 .D,2 .D,2 | .G,,2 .G,,2 .G,,2 | .D,2 .D,2 .D,2 | .B,,2 .B,,2 .B,,2 | .C,2 .C,2 .C,2 | %76
 .D,2 .D,2 .C,2 | .B,,2 .G,,2 .B,,2 | .C,2 .D,2 .D,,2 | !fermata!G,,6 |] %80

